X: 15603
T: Goa Way
R: reel
M: 4/4
K: Dmixolydian
fddc ddde|fddd cdfg|addd d2 ag|eccc dcga:|
fBBA BBBd|BBBB cccd|fBBA B2 ag|eccc dcgA:|

